svg/u1f636_200d_1f32b.svg

<svg viewBox="0 0 128 128" xmlns="http://www.w3.org/2000/svg">
  <g>
    <g>
      <radialGradient id="SVGID_1_" cx="65.1292" cy="61.9064" gradientUnits="userSpaceOnUse" r="53.2369">
        <stop offset="0.5" stop-color="#FDE030"/>
        <stop offset="0.9188" stop-color="#F7C02B"/>
        <stop offset="1" stop-color="#F4A223"/>
      </radialGradient>
      <path d="M97.92,32.95c-0.39-0.91-0.73-1.89-1.46-2.54c-0.98-0.87-2.4-1.2-3.7-1.06 c-4.15,0.46-10.53-0.14-14.65-3.04c-4.09-2.87-6.99-6.77-8.82-10.56c-0.02-0.04-0.06-0.07-0.08-0.1 c-5.32,5.68-14.38,7.23-21.41,4.03c-0.77,6.97-8.73,12.15-15.42,10.04c-1.52,6.62-5.8,13.02-12.07,15.65 c-3.34,1.4-6.11,2.05-8.38,2.23c-0.3,0.07-0.61,0.13-0.92,0.15C10.08,51.83,9.57,56.24,9.57,61c0,1.49,0.15,3.99,0.29,5.83 c4.34,0.87,9.7,3.6,13.99,11.04c3.68,6.39,6.65,4.32,12.89,2.88c7.9-1.82,16.43-1.19,23.63,3.08c1.26,0.74,2.41,1.61,3.47,2.57 c2.08-2.69,4.63-5.24,11.16-7.42c9.31-3.1,16.29,1.49,16.29,1.49c3-6.33,7.04-12.33,12.66-16.5c3.59-2.66,9.58-4.24,14.32-4.59 c0.04,0,0.08-0.01,0.12-0.01c-0.17-5.27-1.01-10.7-2.44-15.36C110.18,44.99,102.62,43.72,97.92,32.95z" fill="url(#SVGID_1_)"/>
      <path d="M116.55,58.18c0,0.32-0.02,1.07-0.02,1.38c0.62-0.09,1.24-0.16,1.86-0.2 c-0.17-5.28-1-10.72-2.44-15.39c-0.35,0.06-0.71,0.11-1.06,0.14C115.99,48.54,116.55,53.25,116.55,58.18z" fill="#EB8F00"/>
      <ellipse cx="44.22" cy="59.35" fill="#422B0D" rx="7.04" ry="11.5"/>
      <path d="M83.76,70.85c3.69,0,7.04-4.33,7.04-11.5c0-7.17-3.35-11.5-7.04-11.5c-3.69,0-7.04,4.33-7.04,11.5 C76.72,66.52,80.08,70.85,83.76,70.85z" fill="#422B0D"/>
    </g>
    <path d="M60.37,83.83c-7.2-4.27-15.73-4.9-23.63-3.08c-6.24,1.44-9.21,3.5-12.89-2.88 C17.94,67.6,9.96,66.28,5.48,66.48c-1.13,0.05-1.55,1.5-0.61,2.13c3.95,2.6,10.95,8.5,13.44,18.83c0,0-6.2,7.06-6.64,13.16 c-0.07,0.94,1.07,1.44,1.74,0.79c5.25-5.08,21.24-14.47,32.18-10.03c13.88,5.63,16.44,17.59,16.86,23.11 c0.11,1.39,1.46,2.31,2.79,1.91c2.93-0.88,7.91-1.87,13.44-0.82c8.79,1.67,15.34,8.51,15.34,8.51c0-10.6-7.81-16.84-17.3-17.86 c-1-0.11-4.34,0.53-5.25-5.32C70.37,93.85,66.5,87.46,60.37,83.83z" fill="#D5EBF5" opacity="0.8"/>
    <path d="M119.91,59.29c-4.91,0-11.94,1.69-15.96,4.67c-5.63,4.17-9.66,10.18-12.66,16.5 c0,0-6.97-4.59-16.29-1.49c-6.53,2.17-9.09,4.72-11.16,7.42c2.62,2.36,4.63,5.31,5.98,8.58c4.71-5.07,12.15-6.44,20.19-5.96 c11.43,0.69,20.11,8.17,20.11,8.17s-1.94-8.74-11.75-13.99c4.56-10.14,11.69-18.55,23.15-19.53c1.48-0.13,3.77-0.16,3.77-1.47 C125.28,61.22,123.12,59.29,119.91,59.29z" fill="#92CBEB" opacity="0.8"/>
    <path d="M108.01,11.59c0.39-0.49,1.19-0.26,1.25,0.36c0.7,8.3-6.19,14.39-6.48,14.96 c-0.71,1.4,1.39,4.79,2.17,5.99c1.35,2.06,3.21,3.74,5.18,5.2c3.6,2.67,8.73,3.05,11.62,3.02c0.54-0.01,0.7,0.72,0.21,0.95 c-4.86,2.27-17.36,6.21-24.05-9.13c-0.39-0.91-0.73-1.89-1.46-2.54c-0.98-0.87-2.4-1.2-3.7-1.06c-4.15,0.46-10.53-0.14-14.65-3.04 C68.25,19.39,65.31,6.57,67.52,3.44c1.04-1.48,2.53,10.84,15.08,14.61C97.53,22.54,103.82,16.93,108.01,11.59z" fill="#D5EBF5" opacity="0.8"/>
    <path d="M67.25,9.55c-4.14,4.27-12.35,7.7-18.04,5.83c1.66-7.98-4.07-11.05-4.07-11.05 c0,0,3.8,11.43-7.12,17.83s-20.14-3.46-20.14-3.46c-1.35,7.89,6.37,11.06,6.37,11.06s0.47,10.42-21.49,14.78 c0,0,4.23,6.42,17.53,0.84c6.27-2.63,10.55-9.02,12.07-15.65c6.68,2.12,14.65-3.07,15.42-10.04c7.04,3.2,16.11,1.64,21.42-4.05 C69.21,15.64,67.89,13.33,67.25,9.55z" fill="#92CBEB" opacity="0.7"/>
  </g>
</svg>

<svg viewBox="0 0 128 128" xmlns="http://www.w3.org/2000/svg">
  <defs>
    <radialGradient id="SVGID_1_" cx="65.1292" cy="61.9064" gradientUnits="userSpaceOnUse" r="53.2369">
      <stop offset="0.5" stop-color="#FDE030"/>
      <stop offset="0.9188" stop-color="#F7C02B"/>
      <stop offset="1" stop-color="#F4A223"/>
    </radialGradient>
  </defs>
  <path d="M97.92,32.95 C97.53,32.04 97.19,31.06 96.46,30.41 C95.48,29.54 94.06,29.21 92.76,29.35 C88.61,29.81 82.23,29.21 78.11,26.31 C74.02,23.44 71.12,19.54 69.29,15.75 C69.27,15.71 69.23,15.68 69.21,15.65 C63.89,21.33 54.83,22.88 47.8,19.68 C47.03,26.65 39.07,31.83 32.38,29.72 C30.86,36.34 26.58,42.74 20.31,45.37 C16.97,46.77 14.2,47.42 11.93,47.6 C11.63,47.67 11.32,47.73 11.01,47.75 C10.08,51.83 9.57,56.24 9.57,61 C9.57,62.49 9.72,64.99 9.86,66.83 C14.2,67.7 19.56,70.43 23.85,77.87 C27.53,84.26 30.5,82.19 36.74,80.75 C44.64,78.93 53.17,79.56 60.37,83.83 C61.63,84.57 62.78,85.44 63.84,86.4 C65.92,83.71 68.47,81.16 75,78.98 C84.31,75.88 91.29,80.47 91.29,80.47 C94.29,74.14 98.33,68.14 103.95,63.97 C107.54,61.31 113.53,59.73 118.27,59.38 C118.31,59.38 118.35,59.37 118.39,59.37 C118.22,54.1 117.38,48.67 115.95,44.01 C110.18,44.99 102.62,43.72 97.92,32.95 Z" fill="url(#SVGID_1_)"/>
  <path d="M116.55,58.18 C116.55,58.5 116.53,59.25 116.53,59.56 C117.15,59.47 117.77,59.4 118.39,59.36 C118.22,54.08 117.39,48.64 115.95,43.97 C115.6,44.03 115.24,44.08 114.89,44.11 C115.99,48.54 116.55,53.25 116.55,58.18 Z" fill="#EB8F00"/>
  <path d="M51.26,59.35 A7.04 11.5 0 1 1 37.18,59.35 A7.04 11.5 0 1 1 51.26,59.35 Z" fill="#422B0D"/>
  <path d="M83.76,70.85 C87.45,70.85 90.8,66.52 90.8,59.35 C90.8,52.18 87.45,47.85 83.76,47.85 C80.07,47.85 76.72,52.18 76.72,59.35 C76.72,66.52 80.08,70.85 83.76,70.85 Z" fill="#422B0D"/>
  <path d="M60.37,83.83 C53.17,79.56 44.64,78.93 36.74,80.75 C30.5,82.19 27.53,84.25 23.85,77.87 C17.94,67.6 9.96,66.28 5.48,66.48 C4.35,66.53 3.93,67.98 4.87,68.61 C8.82,71.21 15.82,77.11 18.31,87.44 C18.31,87.44 12.11,94.5 11.67,100.6 C11.6,101.54 12.74,102.04 13.41,101.39 C18.66,96.31 34.65,86.92 45.59,91.36 C59.47,96.99 62.03,108.95 62.45,114.47 C62.56,115.86 63.91,116.78 65.24,116.38 C68.17,115.5 73.15,114.51 78.68,115.56 C87.47,117.23 94.02,124.07 94.02,124.07 C94.02,113.47 86.21,107.23 76.72,106.21 C75.72,106.1 72.38,106.74 71.47,100.89 C70.37,93.85 66.5,87.46 60.37,83.83 Z" fill="#D5EBF5" opacity="0.8"/>
  <path d="M119.91,59.29 C115,59.29 107.97,60.98 103.95,63.96 C98.32,68.13 94.29,74.14 91.29,80.46 C91.29,80.46 84.32,75.87 75,78.97 C68.47,81.14 65.91,83.69 63.84,86.39 C66.46,88.75 68.47,91.7 69.82,94.97 C74.53,89.9 81.97,88.53 90.01,89.01 C101.44,89.7 110.12,97.18 110.12,97.18 C110.12,97.18 108.18,88.44 98.37,83.19 C102.93,73.05 110.06,64.64 121.52,63.66 C123,63.53 125.29,63.5 125.29,62.19 C125.28,61.22 123.12,59.29 119.91,59.29 Z" fill="#92CBEB" opacity="0.8"/>
  <path d="M108.01,11.59 C108.4,11.1 109.2,11.33 109.26,11.95 C109.96,20.25 103.07,26.34 102.78,26.91 C102.07,28.31 104.17,31.7 104.95,32.9 C106.3,34.96 108.16,36.64 110.13,38.1 C113.73,40.77 118.86,41.15 121.75,41.12 C122.29,41.11 122.45,41.84 121.96,42.07 C117.1,44.34 104.6,48.28 97.91,32.94 C97.52,32.03 97.18,31.05 96.45,30.4 C95.47,29.53 94.05,29.2 92.75,29.34 C88.6,29.8 82.22,29.2 78.1,26.3 C68.25,19.39 65.31,6.57 67.52,3.44 C68.56,1.96 70.05,14.28 82.6,18.05 C97.53,22.54 103.82,16.93 108.01,11.59 Z" fill="#D5EBF5" opacity="0.8"/>
  <path d="M67.25,9.55 C63.11,13.82 54.9,17.25 49.21,15.38 C50.87,7.4 45.14,4.33 45.14,4.33 C45.14,4.33 48.94,15.76 38.02,22.16 C27.1,28.56 17.88,18.7 17.88,18.7 C16.53,26.59 24.25,29.76 24.25,29.76 C24.25,29.76 24.72,40.18 2.76,44.54 C2.76,44.54 6.99,50.96 20.29,45.38 C26.56,42.75 30.84,36.36 32.36,29.73 C39.04,31.85 47.01,26.66 47.78,19.69 C54.82,22.89 63.89,21.33 69.2,15.64 C69.21,15.64 67.89,13.33 67.25,9.55 Z" fill="#92CBEB" opacity="0.7"/>
</svg>
